src/assets/img/Home/icons/CaseItem/cfm.svg

<svg width="30" height="30" viewBox="0 0 30 30" fill="none" xmlns="http://www.w3.org/2000/svg">
<g id="Icon">
<g id="Union">
<path d="M15 9.375C13.4467 9.375 12.1875 10.6342 12.1875 12.1875C12.1875 13.7408 13.4467 15 15 15C16.5533 15 17.8125 13.7408 17.8125 12.1875C17.8125 10.6342 16.5533 9.375 15 9.375Z" fill="#CAFF33"/>
<path fill-rule="evenodd" clip-rule="evenodd" d="M1.875 6.09375C1.875 4.79933 2.92433 3.75 4.21875 3.75H25.7812C27.0757 3.75 28.125 4.79933 28.125 6.09375V18.2813C28.125 19.5757 27.0757 20.625 25.7812 20.625H4.21875C2.92433 20.625 1.875 19.5757 1.875 18.2813V6.09375ZM10.3125 12.1875C10.3125 9.59867 12.4112 7.5 15 7.5C17.5888 7.5 19.6875 9.59867 19.6875 12.1875C19.6875 14.7763 17.5888 16.875 15 16.875C12.4112 16.875 10.3125 14.7763 10.3125 12.1875ZM23.4375 11.25C22.9197 11.25 22.5 11.6697 22.5 12.1875V12.1969C22.5 12.7146 22.9197 13.1344 23.4375 13.1344H23.4469C23.9646 13.1344 24.3844 12.7146 24.3844 12.1969V12.1875C24.3844 11.6697 23.9646 11.25 23.4469 11.25H23.4375ZM5.625 12.1875C5.625 11.6697 6.04473 11.25 6.5625 11.25H6.57188C7.08964 11.25 7.50938 11.6697 7.50938 12.1875V12.1969C7.50938 12.7146 7.08964 13.1344 6.57188 13.1344H6.5625C6.04473 13.1344 5.625 12.7146 5.625 12.1969V12.1875Z" fill="#CAFF33"/>
<path d="M2.8125 22.5C2.29473 22.5 1.875 22.9197 1.875 23.4375C1.875 23.9553 2.29473 24.375 2.8125 24.375C9.56256 24.375 16.1003 25.2778 22.3122 26.9686C23.8004 27.3737 25.3125 26.271 25.3125 24.6939V23.4375C25.3125 22.9197 24.8928 22.5 24.375 22.5H2.8125Z" fill="#CAFF33"/>
</g>
</g>
</svg>

<svg xmlns="http://www.w3.org/2000/svg" width="30" height="30" fill="none"><g fill="#CAFF33"><path d="M15 9.375A2.813 2.813 0 1 0 15 15a2.813 2.813 0 0 0 0-5.625Z"/><path fill-rule="evenodd" d="M1.875 6.094A2.344 2.344 0 0 1 4.219 3.75H25.78a2.344 2.344 0 0 1 2.344 2.344V18.28a2.344 2.344 0 0 1-2.344 2.344H4.22a2.344 2.344 0 0 1-2.344-2.344V6.094Zm8.438 6.093a4.688 4.688 0 1 1 9.375 0 4.688 4.688 0 0 1-9.375 0Zm13.124-.937a.937.937 0 0 0-.937.938v.009c0 .518.42.937.938.937h.009c.518 0 .937-.42.937-.937v-.01a.938.938 0 0 0-.937-.937h-.01Zm-17.812.938c0-.518.42-.938.938-.938h.009c.518 0 .937.42.937.938v.009c0 .518-.42.937-.937.937h-.01a.938.938 0 0 1-.937-.937v-.01Z" clip-rule="evenodd"/><path d="M2.813 22.5a.937.937 0 1 0 0 1.875c6.75 0 13.287.903 19.5 2.594 1.487.405 3-.698 3-2.275v-1.256a.937.937 0 0 0-.938-.938H2.812Z"/></g></svg>
